server/views/icons/a11y/a11y_visual.svg

<svg viewBox="0 0 26 26"><path fill="#1d1d1d" class="icon__shape" d="M23.54 12.49a11.83 11.83 0 0 0-10.42-6.74A10.87 10.87 0 0 0 8.15 7l-3.6-3.6a1 1 0 1 0-1.41 1.38l14.11 14.11 3.93 3.93a1 1 0 0 0 1.41-1.41l-3.05-3.05a12.71 12.71 0 0 0 4-4.66 1 1 0 0 0 .08-.61 1 1 0 0 0-.08-.6zm-5.44 4.42L16.21 15a3.63 3.63 0 0 0-5-5L9.65 8.46a8.86 8.86 0 0 1 3.47-.71 9.78 9.78 0 0 1 8.46 5.35 10.58 10.58 0 0 1-3.48 3.81zM13.12 18.45a9 9 0 0 1-1-.05 9.9 9.9 0 0 1-7.46-5.3 11.42 11.42 0 0 1 .66-1.1 1 1 0 0 0-1.64-1.15 13.41 13.41 0 0 0-1 1.62 1 1 0 0 0-.08.61 1 1 0 0 0 .08.61 12 12 0 0 0 9.21 6.68 11.11 11.11 0 0 0 1.21.07 1 1 0 1 0 0-2z"/></svg>

<svg viewBox="0 0 26 26">
  <path fill="#1d1d1d" class="icon__shape" d="M23.54,12.49A11.83,11.83,0,0,0,13.12,5.75,10.87,10.87,0,0,0,8.15,7l-3.6-3.6A1,1,0,1,0,3.14,4.78L17.25,18.89h0l3.93,3.93a1,1,0,0,0,1.41-1.41l-3.05-3.05a12.71,12.71,0,0,0,4-4.66,1,1,0,0,0,.08-.61A1,1,0,0,0,23.54,12.49ZM18.1,16.91,16.21,15a3.63,3.63,0,0,0-5-5L9.65,8.46a8.86,8.86,0,0,1,3.47-.71,9.78,9.78,0,0,1,8.46,5.35A10.58,10.58,0,0,1,18.1,16.91Z"/>
  <path fill="#1d1d1d" class="icon__shape" d="M13.12,18.45a9,9,0,0,1-1-.05A9.9,9.9,0,0,1,4.66,13.1,11.42,11.42,0,0,1,5.32,12a1,1,0,0,0-1.64-1.15,13.41,13.41,0,0,0-1,1.62,1,1,0,0,0-.08.61,1,1,0,0,0,.08.61,12,12,0,0,0,9.21,6.68,11.11,11.11,0,0,0,1.21.07,1,1,0,1,0,0-2Z"/>
</svg>
